public/assets/Icon/facebook.svg

<svg xmlns="http://www.w3.org/2000/svg" viewBox="0 0 24 24" width="24" height="24"><path fill="none" d="M0 0h24v24H0z"/><path d="M14 13.5h2.5l1-4H14v-2c0-1.03 0-2 2-2h1.5V2.14c-.326-.043-1.557-.14-2.857-.14C11.928 2 10 3.657 10 6.7v2.8H7v4h3V22h4v-8.5z" fill="rgba(245,56,56,1)"/></svg>

<svg width="24" height="24" viewBox="0 0 24 24" fill="none" xmlns="http://www.w3.org/2000/svg">
<g clip-path="url(#clip0_1071_733)">
<path d="M14 13.5H16.5L17.5 9.5H14V7.5C14 6.47 14 5.5 16 5.5H17.5V2.14C17.174 2.097 15.943 2 14.643 2C11.928 2 10 3.657 10 6.7V9.5H7V13.5H10V22H14V13.5Z" fill="white"/>
</g>
<defs>
<clipPath id="clip0_1071_733">
<rect width="24" height="24" fill="white"/>
</clipPath>
</defs>
</svg>
